src/assets/icons/search.svg

<svg width="16" height="16" viewBox="0 0 16 16" fill="none" xmlns="http://www.w3.org/2000/svg">
<g clip-path="url(#clip0_8874_15274)">
<path fill-rule="evenodd" clip-rule="evenodd" d="M6.39362 0.0151048C6.10056 0.0421009 5.9099 0.0671649 5.667 0.110642C3.83348 0.438766 2.195 1.51695 1.15716 3.07826C0.0857321 4.69014 -0.260241 6.65864 0.197238 8.54009C0.485868 9.72714 1.09122 10.819 1.94837 11.6986C2.48422 12.2485 3.00366 12.6412 3.6575 12.9905C4.41462 13.395 5.18152 13.6366 6.08588 13.7554C6.44826 13.803 7.39906 13.7989 7.76992 13.7481C8.68237 13.6232 9.53099 13.3437 10.2794 12.9216C10.4606 12.8194 10.9894 12.4709 11.0782 12.3951L11.138 12.344L12.9075 14.1096C14.5546 15.7529 14.6843 15.8783 14.7819 15.9208C15.1214 16.0686 15.4883 16.0041 15.7464 15.7514C16.0027 15.5004 16.0712 15.1222 15.9224 14.7803C15.8799 14.6828 15.7545 14.553 14.1112 12.906L12.3456 11.1364L12.3967 11.0766C12.4725 10.9878 12.821 10.459 12.9232 10.2778C13.3453 9.5294 13.6248 8.68078 13.7497 7.76833C13.8005 7.39747 13.8046 6.44667 13.757 6.08429C13.6475 5.25049 13.4325 4.53255 13.084 3.83604C12.7157 3.10014 12.2966 2.52796 11.7002 1.94678C11.164 1.42422 10.5607 1.0017 9.89475 0.682261C9.17343 0.336253 8.4618 0.131603 7.65879 0.0392457C7.38818 0.0081122 6.62711 -0.00640309 6.39362 0.0151048ZM6.5525 1.72425C5.83142 1.77698 5.2523 1.93601 4.5899 2.26321C4.0535 2.52816 3.67737 2.79953 3.23924 3.23765C2.80112 3.67578 2.52975 4.05191 2.2648 4.58831C1.97547 5.17407 1.82613 5.6689 1.74882 6.298C1.71161 6.6007 1.71233 7.21523 1.75022 7.51188C1.89366 8.63493 2.35398 9.6286 3.09899 10.4234C4.01064 11.396 5.17119 11.9588 6.49516 12.0703C6.7755 12.0939 7.31439 12.0802 7.58962 12.0424C9.91323 11.7237 11.7252 9.91164 12.044 7.58803C12.0817 7.3128 12.0955 6.77391 12.0719 6.49357C11.9604 5.1701 11.3973 4.0087 10.425 3.0974C9.63221 2.35427 8.61318 1.88181 7.52202 1.75148C7.2492 1.7189 6.79875 1.70625 6.5525 1.72425Z" fill="currentColor"/>
</g>
<defs>
<clipPath id="clip0_8874_15274">
<rect width="16" height="16" fill="white" transform="translate(0 -0.000732422)"/>
</clipPath>
</defs>
</svg>

<svg xmlns="http://www.w3.org/2000/svg" width="16" height="16" fill="none">
  <g clip-path="url(#a)">
    <path fill="currentColor" fill-rule="evenodd" d="M6.394.015a7.811 7.811 0 0 0-.727.096 6.895 6.895 0 0 0-4.51 2.967 6.894 6.894 0 0 0-.96 5.462 6.848 6.848 0 0 0 1.751 3.16 6.68 6.68 0 0 0 1.71 1.292 6.88 6.88 0 0 0 2.428.764c.362.048 1.313.044 1.684-.007a7.035 7.035 0 0 0 2.51-.826c.18-.103.71-.451.798-.527l.06-.051 1.77 1.766c1.647 1.643 1.776 1.768 1.874 1.81a.859.859 0 0 0 1.14-1.14c-.042-.097-.168-.227-1.81-1.874l-1.766-1.77.05-.06c.076-.088.425-.617.527-.798a7.035 7.035 0 0 0 .827-2.51c.05-.37.055-1.321.007-1.684a6.89 6.89 0 0 0-.673-2.248 6.688 6.688 0 0 0-1.384-1.89A6.77 6.77 0 0 0 9.895.683 6.824 6.824 0 0 0 7.659.04 10.284 10.284 0 0 0 6.394.015Zm.159 1.71a4.98 4.98 0 0 0-1.963.538 4.708 4.708 0 0 0-1.35.975c-.439.438-.71.814-.975 1.35a4.973 4.973 0 0 0-.516 1.71c-.037.303-.037.917.001 1.214.144 1.123.604 2.117 1.349 2.911a5.153 5.153 0 0 0 3.396 1.647c.28.024.82.01 1.095-.028a5.197 5.197 0 0 0 4.454-4.454c.038-.275.051-.814.028-1.094a5.155 5.155 0 0 0-1.647-3.397 5.136 5.136 0 0 0-2.903-1.346 6.301 6.301 0 0 0-.97-.027Z" clip-rule="evenodd"/>
  </g>
  <defs>
    <clipPath id="a">
      <path fill="#fff" d="M0 0h16v16H0z"/>
    </clipPath>
  </defs>
</svg>
